svg/progress_wrench.svg

<svg xmlns="http://www.w3.org/2000/svg" viewBox="0 0 24 24"><path d="M13 2.03v2.02c4.39.54 7.5 4.53 6.96 8.92-.46 3.64-3.32 6.53-6.96 6.96v2c5.5-.55 9.5-5.43 8.95-10.93-.45-4.75-4.22-8.5-8.95-8.97m-2 .03c-1.95.19-3.81.94-5.33 2.2L7.1 5.74c1.12-.9 2.47-1.48 3.9-1.68zM4.26 5.67A9.9 9.9 0 0 0 2.05 11h2c.19-1.42.75-2.77 1.64-3.9zM2.06 13c.2 1.96.97 3.81 2.21 5.33l1.42-1.43A8 8 0 0 1 4.06 13zm5.04 5.37-1.43 1.37A10 10 0 0 0 11 22v-2a8 8 0 0 1-3.9-1.63m9.72-3.18-4.11-4.11c.41-1.04.18-2.26-.68-3.11-.9-.91-2.25-1.09-3.34-.59l1.94 1.94-1.35 1.36-1.99-1.95c-.54 1.09-.29 2.44.59 3.35.86.86 2.08 1.08 3.12.68l4.11 4.1c.18.19.45.19.63 0l1.04-1.03c.22-.18.22-.5.04-.64"/></svg>

<?xml version="1.0" encoding="UTF-8"?><!DOCTYPE svg PUBLIC "-//W3C//DTD SVG 1.1//EN" "http://www.w3.org/Graphics/SVG/1.1/DTD/svg11.dtd"><svg xmlns="http://www.w3.org/2000/svg" xmlns:xlink="http://www.w3.org/1999/xlink" version="1.1" id="mdi-progress-wrench" width="24" height="24" viewBox="0 0 24 24"><path d="M13,2.03V2.05L13,4.05C17.39,4.59 20.5,8.58 19.96,12.97C19.5,16.61 16.64,19.5 13,19.93V21.93C18.5,21.38 22.5,16.5 21.95,11C21.5,6.25 17.73,2.5 13,2.03M11,2.06C9.05,2.25 7.19,3 5.67,4.26L7.1,5.74C8.22,4.84 9.57,4.26 11,4.06V2.06M4.26,5.67C3,7.19 2.25,9.04 2.05,11H4.05C4.24,9.58 4.8,8.23 5.69,7.1L4.26,5.67M2.06,13C2.26,14.96 3.03,16.81 4.27,18.33L5.69,16.9C4.81,15.77 4.24,14.42 4.06,13H2.06M7.1,18.37L5.67,19.74C7.18,21 9.04,21.79 11,22V20C9.58,19.82 8.23,19.25 7.1,18.37M16.82,15.19L12.71,11.08C13.12,10.04 12.89,8.82 12.03,7.97C11.13,7.06 9.78,6.88 8.69,7.38L10.63,9.32L9.28,10.68L7.29,8.73C6.75,9.82 7,11.17 7.88,12.08C8.74,12.94 9.96,13.16 11,12.76L15.11,16.86C15.29,17.05 15.56,17.05 15.74,16.86L16.78,15.83C17,15.65 17,15.33 16.82,15.19Z" /></svg>
